X: 135
T: Siedząc po niskich brzegach babilońskiej wody
C: Mikołaj Gomółka
%%abc-version 2.0
%%abcx-abcm2ps-target-version 5.9.1 (29 Sep 2008)
%%abc-creator hum2abc beta
%%abcx-conversion-date 2021/10/04 07:59:10
%%abc-edited-by Anna Matuszewska
%%abcx-initial-encoding-date 2020-02-22
%%humdrum-veritas 3390029037
%%humdrum-veritas-data 2442361577
%%linebreak <none>
%%barnumbers 0
L: 1/4
M: C|
N: Derived from pl-wn--sd-xvi-qu-273--137_gomolka-mikolaj--siedzac-po-niskich-brzegach-babilonskiej-wody.krn
%%staves [1 2 3 4]
V: 1
V: 2 clef=alto
V: 3 clef=tenor
V: 4 clef=bass
K: C
[V:1] E4E2E2 | 
[V:2] A,4A,2A,4 | 
[V:3] C,4C,2C,2 | 
[V:4] A,,4A,,2C,2 [|] 
[V:1] D4^C2E2 | 
[V:2] G,2A,2C2 | 
[V:3] D,4E,2A,2 | 
[V:4] B,,4A,,2A,,2 [|] 
[V:1] E2F2G3F | 
[V:2] B,CD2D2G,2 | 
[V:3] ^G,2A,2B,2C3 | 
[V:4] E,2D,2G,,2C,D, [|] 
[V:1] E2D2E4 | 
[V:2] G,2A,2B,4 | 
[V:3] B,A,4^G,2 | 
[V:4] E,2F,2E,4 [|] 
[V:1] E2A2c3c | 
[V:2] ^C2E2E2E2 | 
[V:3] A,2C2C2G,3 | 
[V:4] A,,2A,,2A,,2C,2 [|] 
[V:1] G2d4d2 | 
[V:2] G2G2G3F | 
[V:3] A,B,CD2B,2 | 
[V:4] C,2G,,4G,2 [|] 
[V:1] c2A2c3B | 
[V:2] E2E2F3E | 
[V:3] C2>B,2A,2A,2 | 
[V:4] A,2>G,2F,6 [|] 
[V:1] A2^G2A2B2 | 
[V:2] C2>D2ED^C2 | 
[V:3] C2>B,2A,2^G,2 | 
[V:4] E,2A,,2E,2 [|] 
[V:1] B2B2c3B | 
[V:2] E2E2E2E4 | 
[V:3] G,2G,2A,2C4 | 
[V:4] E,2E,2A,,2A,G, [|] 
[V:1] AGA2^G2B2 | 
[V:2] D2E2E2 | 
[V:3] B,A,B,2G,3 | 
[V:4] F,E,F,2E,2E,2 [|] 
[V:1] B2^G2A6 | 
[V:2] E4E2DC | 
[V:3] A,B,2A,4 | 
[V:4] E,4F,4 [|] 
[V:1] ^GF^G2B4 | 
[V:2] DE2DE2E4 | 
[V:3] A,4B,2G,4 | 
[V:4] F,4E,2E,4 [|] 
[V:1] B2e4 | 
[V:2] E2G4 | 
[V:3] G,2C4 | 
[V:4] E,2C,4 [|] 
[V:1] c2A4A2 | 
[V:2] F2F4F2 | 
[V:3] C2C2A,4 | 
[V:4] F,2F,4D,2 [|] 
[V:1] E2c4c2 | 
[V:2] G2E4E2 | 
[V:3] ^G,2A,4A,2 | 
[V:4] E,2A,,4A,,2 [|] 
[V:1] A2A2F4 | 
[V:2] F2>E2DCD2 | 
[V:3] F,2>G,2A,4 | 
[V:4] D,2D,2D,4 [|] 
[V:1] E8 | 
[V:2] B,8 | 
[V:3] ^G,8 | 
[V:4] E,8 | 


